packages/kaspersky-hexa-ui-icons/src/iconsSVGs/24/Timer1.svg

<svg width="24" height="24" viewBox="0 0 24 24" fill="none" xmlns="http://www.w3.org/2000/svg">
<path d="M16.2071 8.64299C16.5976 9.03351 16.5976 9.66668 16.2071 10.0572L13.9323 12.3321C13.9764 12.4973 14 12.6709 14 12.8501C14 13.9547 13.1046 14.8501 12 14.8501C10.8954 14.8501 10 13.9547 10 12.8501C10 11.7455 10.8954 10.8501 12 10.8501C12.1792 10.8501 12.3528 10.8737 12.518 10.9178L14.7929 8.64299C15.1834 8.25247 15.8166 8.25247 16.2071 8.64299Z" fill="black"/>
<path fill-rule="evenodd" clip-rule="evenodd" d="M13 1.8501C13 1.29781 12.5523 0.850098 12 0.850098C11.4477 0.850098 11 1.29781 11 1.8501V2.89947C5.94668 3.4012 2 7.66475 2 12.8501C2 18.3729 6.47715 22.8501 12 22.8501C17.5228 22.8501 22 18.3729 22 12.8501C22 10.4488 21.1536 8.24524 19.7429 6.52137L21 5.26431L21.2929 5.5572C21.6834 5.94773 22.3166 5.94773 22.7071 5.5572C23.0976 5.16668 23.0976 4.53352 22.7071 4.14299L20.7071 2.14299C20.3166 1.75247 19.6834 1.75247 19.2929 2.14299C18.9024 2.53352 18.9024 3.16668 19.2929 3.5572L19.5858 3.8501L18.3287 5.10715C16.8472 3.89474 15.0112 3.09916 13 2.89947V1.8501ZM12 4.8501C7.58172 4.8501 4 8.43182 4 12.8501C4 17.2684 7.58172 20.8501 12 20.8501C16.4183 20.8501 20 17.2684 20 12.8501C20 8.43182 16.4183 4.8501 12 4.8501Z" fill="black"/>
</svg>

<svg xmlns="http://www.w3.org/2000/svg" width="24" height="24" fill="none" viewBox="0 0 24 24"><path fill="#000" d="M16.2071 8.643c.3905.3905.3905 1.0237 0 1.4142l-2.2748 2.2749c.0441.1652.0677.3388.0677.518 0 1.1046-.8954 2-2 2s-2-.8954-2-2 .8954-2 2-2c.1792 0 .3528.0236.518.0677l2.2749-2.2748c.3905-.3905 1.0237-.3905 1.4142 0"/><path fill="#000" fill-rule="evenodd" d="M13 1.8501c0-.5523-.4477-1-1-1s-1 .4477-1 1v1.0494c-5.0533.5017-9 4.7653-9 9.9506 0 5.5228 4.4772 10 10 10s10-4.4772 10-10c0-2.4013-.8464-4.6049-2.2571-6.3287L21 5.2644l.2929.2928c.3905.3905 1.0237.3905 1.4142 0s.3905-1.0237 0-1.4142l-2-2c-.3905-.3905-1.0237-.3905-1.4142 0s-.3905 1.0237 0 1.4142l.2929.2929-1.2571 1.257C16.8472 3.8948 15.0112 3.0992 13 2.8996zm-1 3c-4.4183 0-8 3.5817-8 8s3.5817 8 8 8 8-3.5817 8-8-3.5817-8-8-8" clip-rule="evenodd"/></svg>
